X:1
T:Palmer, 66.68
T:Israel B. Sweezy
T:Palmer, 66.68
T:Public Domain
C:Israel B. Sweezy
Z:Public Domain
%%score ( 1 2 ) ( 3 4 )
L:1/8
M:3/4
K:Ab
V:1 treble 
V:2 treble 
V:3 bass 
V:4 bass 
V:1
 [EA]2 [EA]2 [Ec]2 | ([FB]2 [EA]2) [EG]2 | [EA]4 z2 | [Ec]2 [Ec]2 [Ae]2 | ([Fd]2 [Ec]2) [EB]2 | %5
 [Ec]4 [Ae]2 | [Ae]4 [Ec]2 | [Ec]4 [DB]2 | ([CA]2 [EB]2) [Ec]2 | [Fd]4 [DF]2 | (E2 A2) [FB]2 | %11
 ([Ec]2 [CA]2) [DB]2 | [CA]4 z2 |] %13
V:2
 x6 | x6 | x6 | x6 | x6 | x6 | x6 | x6 | x6 | x6 | E4 x2 | x6 | x6 |] %13
V:3
 [A,C]2 [A,C]2 [A,E]2 | ([D,D]2 [E,C]2) [E,B,]2 | [A,C]4 z2 | A,2 A,2 [C,A,]2 | (D,2 E,2) [E,G,]2 | %5
 A,4 [A,C]2 | [A,C]4 A,2 | A,4 [E,G,]2 | ([F,A,]2 [E,G,]2) A,2 | [D,A,]4 [D,A,]2 | %10
 [C,A,]4 [D,A,]2 | [E,A,]4 [E,G,]2 | [A,,A,]4 z2 |] %13
V:4
 x6 | x6 | x6 | A,2 A,2 x2 | A,4 x2 | A,4 x2 | x4 A,2 | A,4 x2 | x4 A,2 | x6 | x6 | x6 | x6 |] %13

